X: 5367
T: Buckley's Fancy
R: reel
M: 4/4
K: Gmajor
|:EF||G2BG dGBG|A2 (3Bcd efge|G2BG dGBG|A2DE FDEF|
G2BG dGBG|A2 (3Bcd egfa|bgfa gedB|GBAF G2:|
|:ef|g2ga gede|g2bg agef|g2ga gede|agbg agef|
g2ga gedg|a2ab agfg|beae gedB|GB (3AGF G2:|

